Rowaita/symbolic/status/network-wired-error-symbolic.svg

<?xml version="1.0" encoding="UTF-8" standalone="no"?>
<svg
   width="16"
   height="16"
   version="1.1"
   id="svg6"
   sodipodi:docname="network-wired-error-symbolic.svg"
   xml:space="preserve"
   inkscape:version="1.2.1 (9c6d41e410, 2022-07-14)"
   xmlns:inkscape="http://www.inkscape.org/namespaces/inkscape"
   xmlns:sodipodi="http://sodipodi.sourceforge.net/DTD/sodipodi-0.dtd"
   xmlns="http://www.w3.org/2000/svg"
   xmlns:svg="http://www.w3.org/2000/svg"><defs
     id="defs10" /><sodipodi:namedview
     id="namedview8"
     pagecolor="#ffffff"
     bordercolor="#000000"
     borderopacity="0.25"
     inkscape:showpageshadow="2"
     inkscape:pageopacity="0.0"
     inkscape:pagecheckerboard="0"
     inkscape:deskcolor="#d1d1d1"
     showgrid="false"
     inkscape:zoom="32.09375"
     inkscape:cx="4.0817916"
     inkscape:cy="8.9892891"
     inkscape:current-layer="svg6" /><g
     id="g417"
     transform="matrix(1.0666429,0,0,1.0666429,-1.0666429,-1.6002858)"><path
       style="opacity:0.3;fill:#444444"
       d="M 2,2 C 2,2 1,2 1,3 v 9 c 0,1 1,1 1,1 h 2 l 1,1 h 6 v -3 l -1,1 H 6 L 5,11 H 3 V 4 h 10 v 1 h 2 V 3 C 15,2 14,2 14,2 Z"
       id="path2" /><g
       id="g248"
       transform="translate(5.000094,2)"
       style="fill:#f44336;fill-opacity:1"><path
         style="fill:#f44336;fill-opacity:1"
         d="M 8,11"
         id="path293" /><path
         style="fill:#f44336;fill-opacity:1"
         d="m 8,11 c 0.550781,0 1,0.449219 1,1 0,0.550781 -0.449219,1 -1,1 -0.550781,0 -1,-0.449219 -1,-1 0,-0.550781 0.449219,-1 1,-1 z"
         id="path291" /><path
         style="fill:#f44336;fill-opacity:1"
         d="M 9,4 V 9 C 9.007812,9.527344 8.527344,10 8,10 7.472656,10 6.992188,9.527344 7,9 V 4 Z"
         id="path289" /></g></g></svg>

<?xml version="1.0" encoding="UTF-8" standalone="no"?>
<svg
   width="16"
   height="16"
   version="1.1"
   id="svg6"
   sodipodi:docname="network-wired-error-symbolic.svg"
   xml:space="preserve"
   inkscape:version="1.2.1 (9c6d41e410, 2022-07-14)"
   xmlns:inkscape="http://www.inkscape.org/namespaces/inkscape"
   xmlns:sodipodi="http://sodipodi.sourceforge.net/DTD/sodipodi-0.dtd"
   xmlns="http://www.w3.org/2000/svg"
   xmlns:svg="http://www.w3.org/2000/svg"><defs
     id="defs10" /><sodipodi:namedview
     id="namedview8"
     pagecolor="#ffffff"
     bordercolor="#000000"
     borderopacity="0.25"
     inkscape:showpageshadow="2"
     inkscape:pageopacity="0.0"
     inkscape:pagecheckerboard="0"
     inkscape:deskcolor="#d1d1d1"
     showgrid="false"
     inkscape:zoom="45.387417"
     inkscape:cx="3.9438244"
     inkscape:cy="7.6342746"
     inkscape:current-layer="svg6" /><path
     style="opacity:0.3;fill:#444444"
     d="M 2,2 C 2,2 1,2 1,3 V 12 C 1,13 2,13 2,13 H 4 L 5,14 H 11 V 11 L 10,12 H 6 L 5,11 H 3 V 4 H 13 V 5 H 15 V 3 C 15,2 14,2 14,2 Z"
     id="path2" /><g
     id="g248"
     transform="translate(5.000094,2)"
     style="fill:#f44336;fill-opacity:1"><path
       style="fill:#f44336;fill-opacity:1"
       d="M 8,11"
       id="path293" /><path
       style="fill:#f44336;fill-opacity:1"
       d="m 8,11 c 0.550781,0 1,0.449219 1,1 0,0.550781 -0.449219,1 -1,1 -0.550781,0 -1,-0.449219 -1,-1 0,-0.550781 0.449219,-1 1,-1 z"
       id="path291" /><path
       style="fill:#f44336;fill-opacity:1"
       d="M 9,4 V 9 C 9.007812,9.527344 8.527344,10 8,10 7.472656,10 6.992188,9.527344 7,9 V 4 Z"
       id="path289" /></g></svg>
